rospo-icon-theme-classic-common/24x24/places/folder-cyan-mail-cloud.svg

<svg height="24" width="24" xmlns="http://www.w3.org/2000/svg"><rect height="12" opacity=".2" rx="1" width="20" x="2" y="9.5"/><path d="m2 17c0 .554.446 1 1 1h18c .554 0 1-.446 1-1v-11c0-.554-.446-1-1-1h-10v-1c0-.554-.446-1-1-1h-7c-.554 0-1 .446-1 1" fill="#0096aa"/><rect height="12" opacity=".2" rx="1" width="20" x="2" y="8.5"/><rect fill="#e4e4e4" height="8" rx="1" width="16" x="4" y="7"/><rect fill="#00bcd4" height="12" rx="1" width="20" x="2" y="9"/><path d="m3 3c-.554 0-1 .446-1 1v .5c0-.554.446-1 1-1h7c .554 0 1 .446 1 1v-.5c0-.554-.446-1-1-1zm8 2v .5h10c .554 0 1 .446 1 1v-.5c0-.554-.446-1-1-1z" fill="#fff" opacity=".1"/><path d="m11.733 12a2.6667 2.7273 0 0 0 -2.5233 1.853 2.1333 2.1818 0 0 0 -1.2096 1.965 2.1333 2.1818 0 0 0 2.1329 2.182 2.1333 2.1818 0 0 0 1.418-.555 2.6667 2.7273 0 0 0  .182.01 2.6667 2.7273 0 0 0 1.127-.26 2.1333 2.1818 0 0 0 1.007.26 2.1333 2.1818 0 0 0 2.133-2.182 2.1333 2.1818 0 0 0 -2.134-2.182 2.1333 2.1818 0 0 0 -.004 0 2.6667 2.7273 0 0 0 -2.129-1.091z" fill="#00424a"/></svg>

<svg xmlns="http://www.w3.org/2000/svg" width="24" height="24" version="1">
 <rect style="opacity:0.2" width="20" height="12" x="2" y="9.5" rx="1" ry="1"/>
 <path style="fill:#0096aa" d="M 2,17 C 2,17.554 2.446,18 3,18 H 21 C 21.554,18 22,17.554 22,17 V 6 C 22,5.446 21.554,5 21,5 H 11 V 4 C 11,3.446 10.554,3 10,3 H 3 C 2.446,3 2,3.446 2,4"/>
 <rect style="opacity:0.2" width="20" height="12" x="2" y="8.5" rx="1" ry="1"/>
 <rect style="fill:#dcdcdc" width="16" height="8" x="4" y="7" rx="1" ry="1"/>
 <rect style="fill:#00bcd4" width="20" height="12" x="2" y="9" rx="1" ry="1"/>
 <path style="opacity:0.1;fill:#ffffff" d="M 3,3 C 2.446,3 2,3.446 2,4 V 4.5 C 2,3.946 2.446,3.5 3,3.5 H 10 C 10.554,3.5 11,3.946 11,4.5 V 4 C 11,3.446 10.554,3 10,3 Z M 11,5 V 5.5 H 21 C 21.554,5.5 22,5.946 22,6.5 V 6 C 22,5.446 21.554,5 21,5 Z"/>
 <path style="fill:#00424A" d="M 11.733,12 A 2.6667,2.7273 0 0 0 9.2097,13.853 2.1333,2.1818 0 0 0 8.0001,15.818 2.1333,2.1818 0 0 0 10.133,18 2.1333,2.1818 0 0 0 11.551,17.445 2.6667,2.7273 0 0 0 11.733,17.455 2.6667,2.7273 0 0 0 12.86,17.195 2.1333,2.1818 0 0 0 13.867,17.455 2.1333,2.1818 0 0 0 16,15.273 2.1333,2.1818 0 0 0 13.866,13.091 2.1333,2.1818 0 0 0 13.862,13.091 2.6667,2.7273 0 0 0 11.733,12 Z"/>
</svg>
